X: 30894
T: Outward Bound
R: jig
M: 6/8
K: Dmajor
A2(G|F2)A d2A|BABA2F|GBd g2d|B3d2B|
cec ABc|d2f f2f|e2d c2B|1 A3:|2 A3A2A||
|:Ace gec|d2f a2f|e2^g b2g|
a3a2f|gbgefg|fafd2f|
e2B c2A|1 d3d2B:|2 d3d2||

